X:11546
T:My Home
R:Other
O:Scotland
M:6/8
K:AMix
e/>d/|\
c>Bc A>ce|a>gf e2d|c>Bc A2B/c/|d>cd B2e/>d/|\
c>Bc A>ce|a>gf e2d|
c>Ac B>GB|A3 A2::\
e|\
A>Bc c>Bc|e>dc c2e|
d>cd B>cd|e>cA A>ce|\
f>df a>gf|e>dc a2d|c>Ac B>GB|A3 A2:|
